X:140
T:Mouse in the Cupboard, The
M:6/8
L:1/8
Q:120
S:THSP
R:jig
D:
K:G
"G"B2G AGE|"C"DGG FGA|"G"BAB cBc|"C"d2g "D"edc|
"G"B2G AGE|"C"DGG FGA|"G"(3Bcd B cAF|"D"AGF "G"G2A:|:
"F"BAB cBc|"C"d2g edc|"G"BAB cBc|"C"dBG "D"FGA|
"G"BAB cBc|"C"d2g edc|"G"BAB "D"cAF|AGF "G"G2A:||
